icons/outline/adjustments-x.svg

<!--
category: System
tags: [settings, close, exit, delete, remove, cancel, eliminate, terminate, block, reject]
version: "2.10"
unicode: "f80d"
-->
<svg
  xmlns="http://www.w3.org/2000/svg"
  width="24"
  height="24"
  viewBox="0 0 24 24"
  fill="none"
  stroke="currentColor"
  stroke-width="2"
  stroke-linecap="round"
  stroke-linejoin="round"
>
  <path d="M4 10a2 2 0 1 0 4 0a2 2 0 0 0 -4 0m2 -6v4m0 4v8m7.653 -5.126a2 2 0 1 0 -.586 2.818m-1.067 -13.692v10m0 4v2m4 -13a2 2 0 1 0 4 0a2 2 0 0 0 -4 0m2 -3v1m0 4v4m4 9l-5 -5m0 5l5 -5" />
</svg>

<!--
category: System
tags: [settings, close, exit, delete, remove, cancel, eliminate, terminate, block, reject]
version: "2.10"
unicode: "f80d"
-->
<svg
  xmlns="http://www.w3.org/2000/svg"
  width="24"
  height="24"
  viewBox="0 0 24 24"
  fill="none"
  stroke="currentColor"
  stroke-width="2"
  stroke-linecap="round"
  stroke-linejoin="round"
>
    <path d="M4 10a2 2 0 1 0 4 0a2 2 0 0 0 -4 0M6 4v4M6 12v8M13.653 14.874a2 2 0 1 0 -.586 2.818M12 4v10M12 18v2M16 7a2 2 0 1 0 4 0a2 2 0 0 0 -4 0M18 4v1M18 9v4M22 22l-5 -5M17 22l5 -5" />
</svg>
